X:1
T:Dar's Sugar in de Gourd -- Jig
R:reel
C:JAMES BUCKLEY
B:Ryan's Mammoth Collection
N:118 666
Z:Contributed by Ray Davies,  ray:davies99.freeserve.co.uk
M:2/4
L:1/16
K:Am
uA,2|\
vA,/uA,/zvCE ABcA | GECE G2(cd) | {f}edef gedg | ea2^g a2AB |
cAB^G A2(~cA) | =GECE G2(cd) | egfa gefd | cAB^G A2:|
|:uA2|\
vAazb va2ue^f | gedB G2~G^F | vGgzva ug2e^f | gedB GEDB, |
A,/A,/z vCE ABcA | GECE G2(cd) | egfa gefd | cAB^G A2 :|
